Newaita-dark/actions/16/view-media-equalizer.svg

<svg height="16" viewBox="0 0 16 16" width="16" xmlns="http://www.w3.org/2000/svg"><g fill="#e0e0e0"><path d="m3.636719 3.101562v-1.324218c0-.179688-.144531-.328125-.328125-.328125h-.664063c-.179687 0-.328125.148437-.328125.328125v1.324218c0 .183594.148438.332032.328125.332032h.664063c.183594 0 .328125-.148438.328125-.332032zm0 0"/><path d="m1.324219 4.425781c0-.917969.738281-1.65625 1.652343-1.65625.917969 0 1.652344.738281 1.652344 1.65625 0 .914063-.734375 1.652344-1.652344 1.652344-.914062 0-1.652343-.738281-1.652343-1.652344zm.660156 0c0 .550781.441406.992188.992187.992188.550782 0 .992188-.441407.992188-.992188s-.441406-.992187-.992188-.992187c-.550781 0-.992187.441406-.992187.992187zm0 0"/><path d="m3.636719 14.347656v-8.601562c0-.179688-.144531-.328125-.328125-.328125h-.664063c-.179687 0-.328125.148437-.328125.328125v8.601562c0 .183594.148438.332032.328125.332032h.664063c.183594 0 .328125-.148438.328125-.332032zm0 0"/><path d="m13.5625 6.738281v-4.960937c0-.179688-.148438-.328125-.332031-.328125h-.660157c-.183593 0-.332031.148437-.332031.328125v4.960937c0 .183594.148438.332031.332031.332031h.660157c.183593 0 .332031-.148437.332031-.332031zm0 0"/><path d="m11.246094 8.0625c0-.914062.738281-1.652344 1.652344-1.652344.917968 0 1.65625.738282 1.65625 1.652344 0 .917969-.738282 1.65625-1.65625 1.65625-.914063 0-1.652344-.738281-1.652344-1.65625zm.660156 0c0 .550781.445312.992188.992188.992188.550781 0 .992187-.441407.992187-.992188s-.441406-.992188-.992187-.992188c-.546876 0-.992188.441407-.992188.992188zm0 0"/><path d="m13.5625 14.347656v-4.960937c0-.183594-.148438-.332031-.332031-.332031h-.660157c-.183593 0-.332031.148437-.332031.332031v4.960937c0 .183594.148438.332032.332031.332032h.660157c.183593 0 .332031-.148438.332031-.332032zm0 0"/><path d="m8.601562 13.023438v1.324218c0 .183594-.148437.332032-.332031.332032h-.660156c-.183594 0-.332031-.148438-.332031-.332032v-1.324218c0-.179688.148437-.328126.332031-.328126h.660156c.183594 0 .332031.148438.332031.328126zm0 0"/><path d="m6.285156 11.703125c0 .914063.738282 1.652344 1.652344 1.652344.917969 0 1.65625-.738281 1.65625-1.652344 0-.917969-.738281-1.65625-1.65625-1.65625-.914062 0-1.652344.738281-1.652344 1.65625zm.660156 0c0-.550781.441407-.992187.992188-.992187s.992188.441406.992188.992187c0 .546875-.441407.992187-.992188.992187s-.992188-.445312-.992188-.992187zm0 0"/><path d="m8.601562 1.777344v8.601562c0 .183594-.148437.332032-.332031.332032h-.660156c-.183594 0-.332031-.148438-.332031-.332032v-8.601562c0-.179688.148437-.328125.332031-.328125h.660156c.183594 0 .332031.148437.332031.328125zm0 0"/></g></svg>

<svg xmlns="http://www.w3.org/2000/svg" xmlns:xlink="http://www.w3.org/1999/xlink" width="16px" height="16px" viewBox="0 0 16 16" version="1.1">
<g id="surface1">
     <defs>
  <style id="current-color-scheme" type="text/css">
   .ColorScheme-Text { color:#eeeeee; } .ColorScheme-Highlight { color:#424242; }
  </style>
 </defs>
<path style="fill:currentColor" class="ColorScheme-Text" d="M 3.636719 3.101562 L 3.636719 1.777344 C 3.636719 1.597656 3.492188 1.449219 3.308594 1.449219 L 2.644531 1.449219 C 2.464844 1.449219 2.316406 1.597656 2.316406 1.777344 L 2.316406 3.101562 C 2.316406 3.285156 2.464844 3.433594 2.644531 3.433594 L 3.308594 3.433594 C 3.492188 3.433594 3.636719 3.285156 3.636719 3.101562 Z M 3.636719 3.101562 "/>
     <defs>
  <style id="current-color-scheme" type="text/css">
   .ColorScheme-Text { color:#eeeeee; } .ColorScheme-Highlight { color:#424242; }
  </style>
 </defs>
<path style="fill:currentColor" class="ColorScheme-Text" d="M 1.324219 4.425781 C 1.324219 3.507812 2.0625 2.769531 2.976562 2.769531 C 3.894531 2.769531 4.628906 3.507812 4.628906 4.425781 C 4.628906 5.339844 3.894531 6.078125 2.976562 6.078125 C 2.0625 6.078125 1.324219 5.339844 1.324219 4.425781 Z M 1.984375 4.425781 C 1.984375 4.976562 2.425781 5.417969 2.976562 5.417969 C 3.527344 5.417969 3.96875 4.976562 3.96875 4.425781 C 3.96875 3.875 3.527344 3.433594 2.976562 3.433594 C 2.425781 3.433594 1.984375 3.875 1.984375 4.425781 Z M 1.984375 4.425781 "/>
     <defs>
  <style id="current-color-scheme" type="text/css">
   .ColorScheme-Text { color:#eeeeee; } .ColorScheme-Highlight { color:#424242; }
  </style>
 </defs>
<path style="fill:currentColor" class="ColorScheme-Text" d="M 3.636719 14.347656 L 3.636719 5.746094 C 3.636719 5.566406 3.492188 5.417969 3.308594 5.417969 L 2.644531 5.417969 C 2.464844 5.417969 2.316406 5.566406 2.316406 5.746094 L 2.316406 14.347656 C 2.316406 14.53125 2.464844 14.679688 2.644531 14.679688 L 3.308594 14.679688 C 3.492188 14.679688 3.636719 14.53125 3.636719 14.347656 Z M 3.636719 14.347656 "/>
     <defs>
  <style id="current-color-scheme" type="text/css">
   .ColorScheme-Text { color:#eeeeee; } .ColorScheme-Highlight { color:#424242; }
  </style>
 </defs>
<path style="fill:currentColor" class="ColorScheme-Text" d="M 13.5625 6.738281 L 13.5625 1.777344 C 13.5625 1.597656 13.414062 1.449219 13.230469 1.449219 L 12.570312 1.449219 C 12.386719 1.449219 12.238281 1.597656 12.238281 1.777344 L 12.238281 6.738281 C 12.238281 6.921875 12.386719 7.070312 12.570312 7.070312 L 13.230469 7.070312 C 13.414062 7.070312 13.5625 6.921875 13.5625 6.738281 Z M 13.5625 6.738281 "/>
     <defs>
  <style id="current-color-scheme" type="text/css">
   .ColorScheme-Text { color:#eeeeee; } .ColorScheme-Highlight { color:#424242; }
  </style>
 </defs>
<path style="fill:currentColor" class="ColorScheme-Text" d="M 11.246094 8.0625 C 11.246094 7.148438 11.984375 6.410156 12.898438 6.410156 C 13.816406 6.410156 14.554688 7.148438 14.554688 8.0625 C 14.554688 8.980469 13.816406 9.71875 12.898438 9.71875 C 11.984375 9.71875 11.246094 8.980469 11.246094 8.0625 Z M 11.90625 8.0625 C 11.90625 8.613281 12.351562 9.054688 12.898438 9.054688 C 13.449219 9.054688 13.890625 8.613281 13.890625 8.0625 C 13.890625 7.511719 13.449219 7.070312 12.898438 7.070312 C 12.351562 7.070312 11.90625 7.511719 11.90625 8.0625 Z M 11.90625 8.0625 "/>
     <defs>
  <style id="current-color-scheme" type="text/css">
   .ColorScheme-Text { color:#eeeeee; } .ColorScheme-Highlight { color:#424242; }
  </style>
 </defs>
<path style="fill:currentColor" class="ColorScheme-Text" d="M 13.5625 14.347656 L 13.5625 9.386719 C 13.5625 9.203125 13.414062 9.054688 13.230469 9.054688 L 12.570312 9.054688 C 12.386719 9.054688 12.238281 9.203125 12.238281 9.386719 L 12.238281 14.347656 C 12.238281 14.53125 12.386719 14.679688 12.570312 14.679688 L 13.230469 14.679688 C 13.414062 14.679688 13.5625 14.53125 13.5625 14.347656 Z M 13.5625 14.347656 "/>
     <defs>
  <style id="current-color-scheme" type="text/css">
   .ColorScheme-Text { color:#eeeeee; } .ColorScheme-Highlight { color:#424242; }
  </style>
 </defs>
<path style="fill:currentColor" class="ColorScheme-Text" d="M 8.601562 13.023438 L 8.601562 14.347656 C 8.601562 14.53125 8.453125 14.679688 8.269531 14.679688 L 7.609375 14.679688 C 7.425781 14.679688 7.277344 14.53125 7.277344 14.347656 L 7.277344 13.023438 C 7.277344 12.84375 7.425781 12.695312 7.609375 12.695312 L 8.269531 12.695312 C 8.453125 12.695312 8.601562 12.84375 8.601562 13.023438 Z M 8.601562 13.023438 "/>
     <defs>
  <style id="current-color-scheme" type="text/css">
   .ColorScheme-Text { color:#eeeeee; } .ColorScheme-Highlight { color:#424242; }
  </style>
 </defs>
<path style="fill:currentColor" class="ColorScheme-Text" d="M 6.285156 11.703125 C 6.285156 12.617188 7.023438 13.355469 7.9375 13.355469 C 8.855469 13.355469 9.59375 12.617188 9.59375 11.703125 C 9.59375 10.785156 8.855469 10.046875 7.9375 10.046875 C 7.023438 10.046875 6.285156 10.785156 6.285156 11.703125 Z M 6.945312 11.703125 C 6.945312 11.152344 7.386719 10.710938 7.9375 10.710938 C 8.488281 10.710938 8.929688 11.152344 8.929688 11.703125 C 8.929688 12.25 8.488281 12.695312 7.9375 12.695312 C 7.386719 12.695312 6.945312 12.25 6.945312 11.703125 Z M 6.945312 11.703125 "/>
     <defs>
  <style id="current-color-scheme" type="text/css">
   .ColorScheme-Text { color:#eeeeee; } .ColorScheme-Highlight { color:#424242; }
  </style>
 </defs>
<path style="fill:currentColor" class="ColorScheme-Text" d="M 8.601562 1.777344 L 8.601562 10.378906 C 8.601562 10.5625 8.453125 10.710938 8.269531 10.710938 L 7.609375 10.710938 C 7.425781 10.710938 7.277344 10.5625 7.277344 10.378906 L 7.277344 1.777344 C 7.277344 1.597656 7.425781 1.449219 7.609375 1.449219 L 8.269531 1.449219 C 8.453125 1.449219 8.601562 1.597656 8.601562 1.777344 Z M 8.601562 1.777344 "/>
</g>
</svg>
